!! 00000] TT[WS
!!!OTL: Ku qi
!!!ARE: Asia, China,ÿShanxi Yongji
!! Ethnic Group: Han
!! WI, 200
!!!SCT: J0238
!!!YEM: Copyright 1995, estate of Helmut Schaffrath.
**kern
*ICvox
*Ivox
*M2/4
*k[f#]
*G:
{4g
8g
8a
=1
4dd
4r
=2
2cc
=3
4dd
8cc
8b
=4
4a
4r}
=5
{4g
8g
8a
=6
4dd
4r
=7
2cc
=8
4dd
8cc
8b
=9
4a
4r}
=10
{8dd
8dd
4cc
=11
8a
8cc
8a
8g
=12
8a
8cc
8g
8a
=13
4dd
8a
8g
=14
8a
8g
8fn
8e
=15
4d
4r}
=16
{4g
8g
8a
=17
2dd
=18
4.cc
8b
=19
8a
8g
8f#
8e
=20
2d
=21
8a
8g
8fn
8e
=22
4d
4r}
=23
{4a
4dd
=24
8a
8dd
8a
8g
=25
8a
8g
8fn
8e
=26
4.d
8c
=27
4d
4r}
==
!!!AGN: Xiaodiao. Qingge, Aisu
!!!ONB: ESAC (Essen Associative Code) Database: CHINA
!!!AMT: simple duple
!!!AIN: vox
!!!EED: Helmut Schaffrath
!!!EEV: 1.0
*-
